suite-common/icons/assets/icons/lifebuoy.svg

<svg xmlns="http://www.w3.org/2000/svg" xml:space="preserve" fill="none" viewBox="0 0 40 40">
  <path fill="#000" fill-rule="evenodd" d="M18.433 4.335c-2.989.335-5.712 1.42-8.03 3.199-3.213 2.467-5.354 6.117-5.982 10.199-.165 1.07-.165 3.464 0 4.534 1.067 6.931 6.381 12.245 13.312 13.312 1.07.165 3.464.165 4.534 0 6.335-.975 11.391-5.526 12.966-11.672.375-1.462.464-2.215.464-3.907 0-1.102-.031-1.704-.118-2.267-.975-6.332-5.491-11.356-11.653-12.961a20 20 0 0 0-1.593-.34c-.823-.126-3.129-.183-3.9-.097M21.3 5.802c2.67.25 5.148 1.208 7.267 2.811.33.249.687.531.794.626l.194.173-2.571 2.57-2.57 2.571-.457-.302c-1.29-.852-2.454-1.208-3.957-1.208s-2.667.356-3.957 1.208l-.456.302-2.56-2.56c-1.408-1.407-2.559-2.574-2.558-2.593.001-.018.238-.225.527-.459 2.883-2.343 6.625-3.483 10.304-3.139m-9.307 7.225 2.56 2.56-.302.456c-.852 1.29-1.208 2.454-1.208 3.957s.356 2.667 1.208 3.957l.302.457-2.571 2.57-2.57 2.571-.173-.194a19 19 0 0 1-.626-.794 14.14 14.14 0 0 1-2.828-9.584c.085-1.091.19-1.727.447-2.695.485-1.83 1.49-3.792 2.709-5.292.234-.289.441-.526.459-.527s1.186 1.15 2.593 2.558M30.77 10.65c.09.101.368.453.617.783a14.2 14.2 0 0 1 1.365 14.929c-.54 1.077-1.298 2.219-1.991 2.999l-.173.194-2.57-2.571-2.571-2.57.302-.457c.852-1.29 1.208-2.454 1.208-3.957s-.356-2.667-1.208-3.957l-.302-.456 2.56-2.56a232 232 0 0 1 2.579-2.56c.011 0 .094.082.184.183m-9.503 3.994c1.919.397 3.65 2.123 4.099 4.089.072.317.114.782.114 1.267 0 1.606-.541 2.878-1.689 3.97-1.107 1.054-2.251 1.51-3.791 1.51-.9 0-1.551-.13-2.245-.448-1.551-.71-2.755-2.163-3.121-3.765-.146-.642-.15-1.861-.006-2.521.209-.969.787-1.961 1.581-2.716 1.391-1.325 3.095-1.791 5.058-1.386m-5.209 11.115c.572.378 1.12.649 1.742.861.751.256 1.28.337 2.2.337 1.503 0 2.667-.356 3.957-1.208l.457-.302 2.57 2.571 2.571 2.57-.194.173c-.107.095-.464.377-.794.626a14.214 14.214 0 0 1-17.134 0c-.33-.249-.687-.531-.794-.626l-.193-.173 2.56-2.561c1.408-1.408 2.571-2.56 2.585-2.56s.223.131.467.292"/>
</svg>

<svg xmlns="http://www.w3.org/2000/svg" xml:space="preserve" fill="none" viewBox="0 0 40 40"><path d="M18.433 4.335 C 15.444 4.670,12.721 5.755,10.403 7.534 C 7.190 10.001,5.049 13.651,4.421 17.733 C 4.256 18.803,4.256 21.197,4.421 22.267 C 5.488 29.198,10.802 34.512,17.733 35.579 C 18.803 35.744,21.197 35.744,22.267 35.579 C 28.602 34.604,33.658 30.053,35.233 23.907 C 35.608 22.445,35.697 21.692,35.697 20.000 C 35.697 18.898,35.666 18.296,35.579 17.733 C 34.604 11.401,30.088 6.377,23.926 4.772 C 23.435 4.644,22.718 4.491,22.333 4.432 C 21.510 4.306,19.204 4.249,18.433 4.335 M21.300 5.802 C 23.970 6.052,26.448 7.010,28.567 8.613 C 28.897 8.862,29.254 9.144,29.361 9.239 L 29.555 9.412 26.984 11.982 L 24.414 14.553 23.957 14.251 C 22.667 13.399,21.503 13.043,20.000 13.043 C 18.497 13.043,17.333 13.399,16.043 14.251 L 15.587 14.553 13.027 11.993 C 11.619 10.586,10.468 9.419,10.469 9.400 C 10.470 9.382,10.707 9.175,10.996 8.941 C 13.879 6.598,17.621 5.458,21.300 5.802 M11.993 13.027 L 14.553 15.587 14.251 16.043 C 13.399 17.333,13.043 18.497,13.043 20.000 C 13.043 21.503,13.399 22.667,14.251 23.957 L 14.553 24.414 11.982 26.984 L 9.412 29.555 9.239 29.361 C 9.144 29.254,8.862 28.897,8.613 28.567 C 6.534 25.820,5.522 22.386,5.785 18.983 C 5.870 17.892,5.975 17.256,6.232 16.288 C 6.717 14.458,7.722 12.496,8.941 10.996 C 9.175 10.707,9.382 10.470,9.400 10.469 C 9.419 10.468,10.586 11.619,11.993 13.027 M30.770 10.650 C 30.860 10.751,31.138 11.103,31.387 11.433 C 34.647 15.742,35.175 21.521,32.752 26.362 C 32.212 27.439,31.454 28.581,30.761 29.361 L 30.588 29.555 28.018 26.984 L 25.447 24.414 25.749 23.957 C 26.601 22.667,26.957 21.503,26.957 20.000 C 26.957 18.497,26.601 17.333,25.749 16.043 L 25.447 15.587 28.007 13.027 C 29.414 11.619,30.575 10.467,30.586 10.467 C 30.597 10.467,30.680 10.549,30.770 10.650 M21.267 14.644 C 23.186 15.041,24.917 16.767,25.366 18.733 C 25.438 19.050,25.480 19.515,25.480 20.000 C 25.480 21.606,24.939 22.878,23.791 23.970 C 22.684 25.024,21.540 25.480,20.000 25.480 C 19.100 25.480,18.449 25.350,17.755 25.032 C 16.204 24.322,15.000 22.869,14.634 21.267 C 14.488 20.625,14.484 19.406,14.628 18.746 C 14.837 17.777,15.415 16.785,16.209 16.030 C 17.600 14.705,19.304 14.239,21.267 14.644 M16.058 25.759 C 16.630 26.137,17.178 26.408,17.800 26.620 C 18.551 26.876,19.080 26.957,20.000 26.957 C 21.503 26.957,22.667 26.601,23.957 25.749 L 24.414 25.447 26.984 28.018 L 29.555 30.588 29.361 30.761 C 29.254 30.856,28.897 31.138,28.567 31.387 C 23.506 35.216,16.494 35.216,11.433 31.387 C 11.103 31.138,10.746 30.856,10.639 30.761 L 10.446 30.588 13.006 28.027 C 14.414 26.619,15.577 25.467,15.591 25.467 C 15.604 25.467,15.814 25.598,16.058 25.759 " stroke="none" fill-rule="evenodd" fill="black"></path></svg>
